dist/assets/arrowupsquarefill.svg

<svg width="50" height="50" viewBox="0 0 50 50" fill="none" xmlns="http://www.w3.org/2000/svg">
<g clip-path="url(#clip0_234_5)">
<path d="M6.25 50C4.5924 50 3.00269 49.3415 1.83058 48.1694C0.65848 46.9973 0 45.4076 0 43.75V6.25C0 4.5924 0.65848 3.00269 1.83058 1.83058C3.00269 0.65848 4.5924 0 6.25 0L43.75 0C45.4076 0 46.9973 0.65848 48.1694 1.83058C49.3415 3.00269 50 4.5924 50 6.25V43.75C50 45.4076 49.3415 46.9973 48.1694 48.1694C46.9973 49.3415 45.4076 50 43.75 50H6.25ZM26.5625 35.9375V17.8344L33.2687 24.5438C33.414 24.689 33.5865 24.8043 33.7763 24.8829C33.9661 24.9615 34.1696 25.002 34.375 25.002C34.5804 25.002 34.7839 24.9615 34.9737 24.8829C35.1635 24.8043 35.336 24.689 35.4813 24.5438C35.6265 24.3985 35.7418 24.226 35.8204 24.0362C35.899 23.8464 35.9395 23.643 35.9395 23.4375C35.9395 23.232 35.899 23.0286 35.8204 22.8388C35.7418 22.649 35.6265 22.4765 35.4813 22.3312L26.1063 12.9562C25.9611 12.8107 25.7887 12.6953 25.5989 12.6165C25.409 12.5378 25.2055 12.4972 25 12.4972C24.7945 12.4972 24.591 12.5378 24.4011 12.6165C24.2113 12.6953 24.0389 12.8107 23.8937 12.9562L14.5187 22.3312C14.2254 22.6246 14.0605 23.0226 14.0605 23.4375C14.0605 23.8524 14.2254 24.2504 14.5187 24.5438C14.8121 24.8371 15.2101 25.002 15.625 25.002C16.0399 25.002 16.4379 24.8371 16.7313 24.5438L23.4375 17.8344V35.9375C23.4375 36.3519 23.6021 36.7493 23.8951 37.0424C24.1882 37.3354 24.5856 37.5 25 37.5C25.4144 37.5 25.8118 37.3354 26.1049 37.0424C26.3979 36.7493 26.5625 36.3519 26.5625 35.9375Z" fill="white"/>
</g>
<defs>
<clipPath id="clip0_234_5">
<rect width="50" height="50" fill="white"/>
</clipPath>
</defs>
</svg>

<svg width="50" height="50" fill="none" xmlns="http://www.w3.org/2000/svg"><g clip-path="url(#clip0_234_5)"><path d="M6.25 50A6.25 6.25 0 010 43.75V6.25A6.25 6.25 0 016.25 0h37.5A6.25 6.25 0 0150 6.25v37.5A6.25 6.25 0 0143.75 50H6.25zm20.313-14.063V17.834l6.706 6.71a1.566 1.566 0 002.551-1.705 1.566 1.566 0 00-.339-.508l-9.375-9.375a1.564 1.564 0 00-2.212 0l-9.375 9.375a1.565 1.565 0 002.212 2.213l6.706-6.71v18.104a1.563 1.563 0 003.125 0z" fill="#fff"/></g><defs><clipPath id="clip0_234_5"><path fill="#fff" d="M0 0h50v50H0z"/></clipPath></defs></svg>
